X: 27244
T: Miss Sarah MacManus
R: reel
M: 4/4
K: Dmajor
|:DE|FAA^G AFDE|FAA^G A3B|GBBG BGDG|Bcdc B2AG|
FAA^G AFDE|FAA^G A3B|G3A Bcdc|AFEF D2:|
|:A2|F2A2 B2A2|dF eF fF eF|G2B2 e2d2|eEdE cEAE|
F2A2 B2A2|dF eF fF eF|GFGA BcdB|AFEF D2:|

